src/images/twitter-logo.svg

<?xml version="1.0" encoding="UTF-8"?>
<svg width="32px" height="32px" viewBox="0 0 32 32" version="1.1" xmlns="http://www.w3.org/2000/svg" xmlns:xlink="http://www.w3.org/1999/xlink">
    <!-- Generator: Sketch 61 (89581) - https://sketch.com -->
    <title>twitter</title>
    <desc>Created with Sketch.</desc>
    <g id="work" stroke="none" stroke-width="1" fill="none" fill-rule="evenodd">
        <g id="Current-Favorite-10-Dec-2019-Copy-4" transform="translate(-108.000000, -441.000000)" fill="#6600FF" fill-rule="nonzero">
            <g id="twitter" transform="translate(108.000000, 441.000000)">
                <path d="M5.60824742,22.5291237 C7.49510308,23.7391753 9.73634019,24.4451031 12.1445876,24.4451031 C19.9876289,24.4451031 24.2762887,17.9479382 24.2762887,12.3128866 C24.2762887,12.1283505 24.2721649,11.9443299 24.2641752,11.7613402 C25.0974226,11.1603093 25.8201031,10.4092784 26.3917526,9.55412374 C25.6270618,9.89329894 24.8054124,10.1226804 23.9427835,10.2257732 C24.8231958,9.69793814 25.4992268,8.8623711 25.8175258,7.86675259 C24.9935567,8.35515461 24.0811856,8.71030928 23.1100516,8.90128864 C22.3322165,8.07268038 21.2239691,7.55489689 19.9974227,7.55489689 C17.6427835,7.55489689 15.7335052,9.46417524 15.7335052,11.8188144 C15.7335052,12.152835 15.7713917,12.4783505 15.8440722,12.7904639 C12.3005155,12.6126288 9.15850517,10.9152062 7.05541239,8.33530926 C6.68840208,8.96520617 6.4780928,9.69742265 6.4780928,10.4791237 C6.4780928,11.9582475 7.23067012,13.2634021 8.37500002,14.0280928 C7.67577323,14.0059279 7.01829899,13.8139176 6.44355668,13.4945876 C6.44329897,13.5126288 6.44329897,13.5304123 6.44329897,13.5484536 C6.44329897,15.6141753 7.91314435,17.3376289 9.86365981,17.7293815 C9.50592785,17.8265464 9.12912369,17.8791237 8.74020619,17.8791237 C8.46546395,17.8791237 8.19845358,17.8523196 7.93788661,17.8023196 C8.48041237,19.4963918 10.0554124,20.7291237 11.9211341,20.763402 C10.4618557,21.9072165 8.62319584,22.5889175 6.62551548,22.5889175 C6.28118558,22.5889175 5.94175261,22.5688144 5.60824742,22.5291237 L5.60824742,22.5291237 Z" id="Path"></path>
                <path d="M0,0 L0,32 L32,32 L32,0 L0,0 Z M30.0206186,30.0206186 L1.97938144,30.0206186 L1.97938144,1.97938144 L30.0206186,1.97938144 L30.0206186,30.0206186 Z" id="Shape"></path>
            </g>
        </g>
    </g>
</svg>

<svg width="32" height="32" xmlns="http://www.w3.org/2000/svg"><g fill="#60F" fill-rule="nonzero"><path d="M5.608 22.53a12.066 12.066 0 006.537 1.915c7.843 0 12.131-6.497 12.131-12.132 0-.185-.004-.369-.012-.552a8.658 8.658 0 002.128-2.207 8.524 8.524 0 01-2.45.672 4.277 4.277 0 001.876-2.36 8.538 8.538 0 01-2.708 1.035 4.264 4.264 0 00-7.266 3.89 12.105 12.105 0 01-8.789-4.456 4.244 4.244 0 00-.577 2.144c0 1.48.753 2.784 1.897 3.55a4.247 4.247 0 01-1.931-.534v.053c0 2.066 1.47 3.79 3.42 4.181a4.282 4.282 0 01-1.926.073 4.268 4.268 0 003.983 2.961 8.555 8.555 0 01-5.295 1.826c-.345 0-.684-.02-1.018-.06z"/><path d="M0 0v32h32V0H0zm30.02 30.02H1.98V1.98h28.04v28.04z"/></g></svg>
